findly-builder/apps/searchassist/src/assets/icons/search-interface/dummy-small.svg

<svg width="28" height="24" viewBox="0 0 28 24" fill="none" xmlns="http://www.w3.org/2000/svg">
<path fill-rule="evenodd" clip-rule="evenodd" d="M3 0C1.35156 0 0 1.35156 0 3V21C0 22.6484 1.35156 24 3 24H25C26.6484 24 28 22.6484 28 21V3C28 1.35156 26.6484 0 25 0H3ZM3 2H25C25.5625 2 26 2.4375 26 3V17.5312L19.3671 10.5286C19.1655 10.3158 18.8249 10.3212 18.6302 10.5404L15.0859 14.5312L9.4374 8.57501C9.23576 8.36238 8.89531 8.36796 8.70074 8.58707L2 16.1328V3C2 2.4375 2.4375 2 3 2ZM20 4C18.8984 4 18 4.89844 18 6C18 7.10156 18.8984 8 20 8C21.1016 8 22 7.10156 22 6C22 4.89844 21.1016 4 20 4ZM9.10938 11.1328L19.4141 22H3C2.4375 22 2 21.5625 2 21V19.1484L9.10938 11.1328ZM19.0312 13.0938L26 20.4375V21C26 21.5625 25.5625 22 25 22H22.1641L16.4688 15.9844L19.0312 13.0938Z" fill="#E4E5E7"/>
</svg>

<svg width="28" height="24" fill="none" xmlns="http://www.w3.org/2000/svg"><path fill-rule="evenodd" clip-rule="evenodd" d="M3 0a3.01 3.01 0 0 0-3 3v18c0 1.648 1.352 3 3 3h22c1.648 0 3-1.352 3-3V3c0-1.648-1.352-3-3-3H3Zm0 2h22c.563 0 1 .438 1 1v14.531l-6.633-7.002a.5.5 0 0 0-.737.011l-3.544 3.991-5.649-5.956a.5.5 0 0 0-.736.012L2 16.133V3c0-.563.438-1 1-1Zm17 2c-1.102 0-2 .898-2 2 0 1.102.898 2 2 2 1.102 0 2-.898 2-2 0-1.102-.898-2-2-2ZM9.11 11.133 19.413 22H3c-.563 0-1-.438-1-1v-1.852l7.11-8.015Zm9.921 1.96L26 20.439V21c0 .563-.438 1-1 1h-2.836l-5.695-6.016 2.562-2.89Z" fill="#E4E5E7"/></svg>
